X: 303
T:Shores of Loughrea
T:Humors of Loughrae
T:Tommy Whelan's
M:C|
L:1/8
S:from Mike Rafferty
Z:Tom Madden
K:G
DE|:~G3A BAA2|bgag egdB|G2GA BAGE|ABAG E2DE| ~G3A BAA2|
bgag egdB|G2GA BAGE|ABAG E2DE|
g2eg fdBd|g2 ef gaba|geeg fdBd|egfd e2ef| g2eg fdBd|g2 ef gaba|
g2ge a2ag|eaag egdB:|"fine"G4 z4||

